X: 21111
T: MAC MHIC ALASTAIR, OR "GLENGARY."
Q: "Strathspey."
%R: starthspey
B: W. Hamilton "Universal Tune-Book" Vol. 2 Glasgow 1846 p.111 #1
S: http://s3-eu-west-1.amazonaws.com/itma.dl.printmaterial/book_pdfs/hamiltonvol2web.pdf
Z: 2016 John Chambers <jc:trillian.mit.edu>
M: C
L: 1/8
K: A
% - - - - - - - - - - - - - - - - - - - - - - - - -
E<CC>B, B,>CE<C | ECC<c B>AF2 |\
E<CC>B, A,>CE<C | {AB}c>BA<F E<CB,2 |\
E<CC>B, A,>CE<C | E<CC<c B>AF2 |\
E<CC>B, A,>CE<C | {AB}c>BA<F E<CB, |]
E |\
C<EA>E F>EA>E | C<EA>E F>EC2 |\
C<EA>E F>EA<E | {AB}c>BA<F E<CB,2 |\
C<EA>E F>EA<E | C<EA<c e>c Hd2 |\
c<ae>c d>Bc>A | B>GA>F E<C B,2 |]
% - - - - - - - - - - - - - - - - - - - - - - - - -
